!!!OTL: AN EINEM SOMMERABEND SCHOEN
!!!ARE: Europa, Mitteleuropa, Deutschland; Schottland
!!!SCT: F0150
!!!YEM: Copyright 1995, estate of Helmut Schaffrath.
**kern
*ICvox
*Ivox
*M2/4
*k[f#c#g#]
*A:
{16e
16d
=1
8c#
8e
8e
16f#
16g#
=2
8.a
16b
8a}
{8g#
=3
8.f#
16e
8f#
8a
=4
8.b
16cc#
8b}
{16e
16d
=5
8c#
8e
8e
16f#
16g#
=6
8.a
16b
8cc#}
{8b
=7
8.a
16f#
8e
8cc#
=8
8cc#
8b
8a}
{16ee
16dd
=9
8cc#
8ee
8a
8b
=10
8.cc#
16dd
8ee}
{16dd
16cc#
=11
8.dd
16cc#
8b
8cc#
=12
8.dd
16ee
8ff#}
{16ee
16dd
=13
8cc#
8ee
8b
8cc#
=14
8.a
16b
8cc#}
{8b
=15
8a
8f#
8e
8cc#
=16
8cc#
8b
8a}
{16ee
16dd
=17
8cc#
8ee
8a
8b
=18
8.cc#
16dd
8ee}
{16dd
16cc#
=19
8.dd
16cc#
8b
8cc#
=20
8.dd
16ee
8ff#}
{16ee
16dd
=21
8cc#
8ee
8b
8cc#
=22
8.a
16b
8cc#}
{8b
=23
8a
8f#
16e
8ee
16dd
=24
8cc#
8b
8a}
==
!!!AGN: Liebes - Lied
!!!ONB: ESAC (Essen Associative Code) Database: FINK
!!!AMT: simple duple
!!!AIN: vox
!!!EED: Helmut Schaffrath
!!!EEV: 1.0
*-
